src/assets/mabet-logo-without-windows.svg

<svg width="87" height="64" viewBox="0 0 87 64" fill="none" xmlns="http://www.w3.org/2000/svg">
<path d="M87.0204 1.90227L82.413 0.998173C80.5711 0.639469 76.5855 1.11327 73.3254 5.19839C72.1376 6.68987 71.89 6.71062 68.0005 5.64564C66.408 5.20953 64.4242 4.66641 61.911 4.22802C53.2521 2.71783 31.4126 2.88377 21.7765 5.11517C17.5289 6.09389 15.8729 4.81667 13.573 3.04617C11.7385 1.6321 9.45302 -0.127262 5.87694 -0.127262L0.127623 -0.122459L4.04465 4.1061C4.07667 4.14075 7.18976 7.54287 7.97831 11.5761L4.88237 23.6514C4.23327 26.1889 3.88048 28.5771 3.80936 30.9398L3.79978 31.5849L3.80709 32.7789C3.88048 35.156 4.23327 37.5447 4.88237 40.0799C6.46223 46.2414 7.3688 49.7808 8.0421 51.8167C7.36603 55.9962 4.07667 59.5913 4.04692 59.6232L0.0834961 63.8606H5.87694C9.45302 63.8606 11.736 62.101 13.573 60.6872C15.8729 58.9141 17.5337 57.6344 21.7765 58.6184C31.4126 60.8483 53.2544 61.014 61.9133 59.5053C64.4242 59.0667 66.4057 58.5236 68.0005 58.0864C71.89 57.0235 72.1376 57.0442 73.3254 58.5337C76.5855 62.6185 80.5711 63.1027 82.413 62.7336L86.9811 61.8285L83.7134 58.4942C83.6917 58.4717 82.0433 56.7703 80.7572 54.2001L80.732 54.1612C80.1611 53.2771 79.9129 52.2222 80.0297 51.1754C80.7159 48.8965 82.2095 43.9943 82.445 43.2303C84.6349 36.204 84.6858 27.8584 82.5822 20.9007L82.2271 19.7264C81.0586 15.8674 80.3336 13.4691 79.7752 11.9776C80.9458 8.09408 83.6842 5.2672 83.7086 5.24266L87.0204 1.90227Z" fill="#45C0B5"/>
</svg>

<svg xmlns="http://www.w3.org/2000/svg" width="87" height="64" fill="none"><path fill="#45C0B5" d="M87.02 1.902 82.413.998c-1.842-.359-5.828.115-9.088 4.2-1.187 1.492-1.435 1.513-5.324.448-1.593-.436-3.577-.98-6.09-1.418-8.659-1.51-30.498-1.344-40.134.887-4.248.979-5.904-.298-8.204-2.069-1.835-1.414-4.12-3.173-7.696-3.173l-5.75.005 3.918 4.228c.032.035 3.145 3.437 3.933 7.47L4.882 23.651C4.233 26.19 3.88 28.577 3.81 30.94l-.01.645.008 1.194c.073 2.377.426 4.766 1.075 7.3 1.58 6.162 2.487 9.702 3.16 11.738-.676 4.18-3.965 7.774-3.995 7.806L.083 63.861h5.794c3.576 0 5.859-1.76 7.696-3.174 2.3-1.773 3.96-3.053 8.203-2.069 9.637 2.23 31.478 2.396 40.137.887 2.511-.438 4.493-.981 6.088-1.419 3.889-1.062 4.137-1.042 5.324.448 3.26 4.084 7.246 4.569 9.088 4.2l4.568-.906-3.268-3.334c-.021-.022-1.67-1.724-2.956-4.294l-.025-.039a4.57 4.57 0 0 1-.702-2.986c.686-2.278 2.18-7.18 2.415-7.945 2.19-7.026 2.24-15.372.137-22.33l-.355-1.174c-1.168-3.859-1.893-6.257-2.452-7.748 1.17-3.884 3.91-6.71 3.934-6.735z"/></svg>
